X: 4
T: Hunting The Buffalo
R: reel
M: 4/4
L: 1/8
K: Dmaj
e2|"D"f4 fede|fedc B2A2|f4 fede|"D"fefa "C" b2 a2|
"D"f4 fede|fedc B2A2|f4 ed c2|"Bm"B3 A B2||
"G"A2|B3 A B2 A2|BABc d2 A2|BABc d2 de|"D"f2f2 e2d2|
"G"B3 A B2 A2|BABc d2 de|"D"f2f2 e2d2|"Bm"B3 A B2||